X: 24
M:2/4
L:1/16
K:Bb
vF2|Bcde .f(BAB)|gBaB .b(BAB)|GeFd EcDB|cdec BAGF|
|:(vde)|.f(BAB) .g(BAB)|babg gfed|g^fgd edeG|cdec BAGF|


